src/images/svg/insta.svg

<svg width="30" height="30" viewBox="0 0 30 30" fill="none" xmlns="http://www.w3.org/2000/svg">
<path d="M12.1289 15C12.1289 16.5857 13.4143 17.8711 15 17.8711C16.5857 17.8711 17.8711 16.5857 17.8711 15C17.8711 13.4143 16.5857 12.1289 15 12.1289C13.4143 12.1289 12.1289 13.4143 12.1289 15Z" fill="#999999"/>
<path d="M8.28558 9.91991C8.4236 9.54591 8.64378 9.2074 8.92989 8.92953C9.20775 8.64343 9.54604 8.42325 9.92026 8.28523C10.2238 8.16736 10.6797 8.02705 11.5195 7.98883C12.4279 7.9474 12.7003 7.93848 15.0001 7.93848C17.3001 7.93848 17.5725 7.94717 18.4807 7.9886C19.3204 8.02705 19.7766 8.16736 20.0799 8.28523C20.4541 8.42325 20.7926 8.64343 21.0702 8.92953C21.3563 9.2074 21.5765 9.54568 21.7148 9.91991C21.8326 10.2234 21.9729 10.6796 22.0112 11.5193C22.0526 12.4275 22.0615 12.6999 22.0615 14.9999C22.0615 17.2997 22.0526 17.5721 22.0112 18.4805C21.9729 19.3203 21.8326 19.7762 21.7148 20.0797C21.5765 20.454 21.3566 20.7923 21.0705 21.0701C20.7926 21.3562 20.4543 21.5764 20.0801 21.7144C19.7766 21.8325 19.3204 21.9728 18.4807 22.011C17.5725 22.0525 17.3003 22.0612 15.0003 22.0612C12.7 22.0612 12.4277 22.0525 11.5197 22.011C10.6799 21.9728 10.2238 21.8325 9.92026 21.7144C9.16907 21.4247 8.57535 20.8309 8.28558 20.0797C8.16771 19.7762 8.0274 19.3203 7.98895 18.4805C7.94753 17.5721 7.93883 17.2997 7.93883 14.9999C7.93883 12.6999 7.94753 12.4275 7.98895 11.5193C8.02718 10.6796 8.16748 10.2234 8.28558 9.91991ZM15.0001 19.4226C17.4429 19.4226 19.4232 17.4426 19.4232 14.9997C19.4232 12.5569 17.4429 10.5768 15.0001 10.5768C12.5574 10.5768 10.5771 12.5569 10.5771 14.9997C10.5771 17.4426 12.5574 19.4226 15.0001 19.4226ZM10.4023 11.4356C10.9731 11.4356 11.4359 10.9728 11.4359 10.4019C11.4359 9.8311 10.9731 9.3683 10.4023 9.3683C9.83145 9.3683 9.36865 9.8311 9.36865 10.4019C9.36888 10.9728 9.83145 11.4356 10.4023 11.4356Z" fill="#999999"/>
<path d="M15 0C23.283 0 30 6.717 30 15C30 23.283 23.283 30 15 30C6.717 30 0 23.283 0 15C0 6.717 6.717 0 15 0ZM6.43867 18.5511C6.48033 19.468 6.62613 20.094 6.83899 20.6419C7.28645 21.7989 8.20107 22.7135 9.35806 23.161C9.90578 23.3739 10.532 23.5194 11.4487 23.5613C12.3672 23.6032 12.6606 23.6133 14.9998 23.6133C17.3392 23.6133 17.6324 23.6032 18.5511 23.5613C19.4678 23.5194 20.094 23.3739 20.6417 23.161C21.2167 22.9447 21.7371 22.6057 22.1674 22.1674C22.6055 21.7374 22.9445 21.2167 23.1608 20.6419C23.3736 20.0942 23.5194 19.468 23.5611 18.5513C23.6034 17.6326 23.6133 17.3392 23.6133 15C23.6133 12.6608 23.6034 12.3674 23.5613 11.4489C23.5197 10.532 23.3741 9.90601 23.1612 9.35806C22.9449 8.78334 22.6057 8.26263 22.1674 7.83257C21.7374 7.39426 21.2167 7.05528 20.6419 6.83899C20.094 6.62613 19.468 6.48056 18.5511 6.43867C17.6326 6.39679 17.3392 6.38672 15 6.38672C12.6608 6.38672 12.3674 6.39679 11.4489 6.4389C10.532 6.48056 9.90601 6.62613 9.35806 6.83876C8.78334 7.05505 8.26263 7.39426 7.83234 7.83257C7.39426 8.26286 7.05505 8.78334 6.83899 9.35806C6.6259 9.90601 6.48033 10.532 6.43845 11.4489C6.39656 12.3674 6.38672 12.6608 6.38672 15C6.38672 17.3392 6.39656 17.6326 6.43867 18.5511Z" fill="#999999"/>
</svg>

<svg width="30" height="30" fill="none" xmlns="http://www.w3.org/2000/svg"><path d="M12.129 15a2.871 2.871 0 105.742 0 2.871 2.871 0 00-5.742 0z" fill="#999"/><path d="M8.286 9.92a2.66 2.66 0 01.644-.99c.278-.287.616-.507.99-.645.304-.118.76-.258 1.6-.296.908-.042 1.18-.05 3.48-.05s2.573.008 3.48.05c.84.038 1.297.178 1.6.296.374.138.713.358.99.645.286.277.506.616.645.99.118.303.258.76.296 1.6.042.908.05 1.18.05 3.48s-.008 2.572-.05 3.48c-.038.84-.178 1.296-.296 1.6a2.67 2.67 0 01-.645.99 2.667 2.667 0 01-.99.644c-.303.119-.76.259-1.6.297-.907.041-1.18.05-3.48.05s-2.572-.009-3.48-.05c-.84-.038-1.296-.178-1.6-.297a2.852 2.852 0 01-1.634-1.634c-.118-.304-.259-.76-.297-1.6-.041-.908-.05-1.18-.05-3.48s.009-2.572.05-3.48c.038-.84.178-1.297.297-1.6zM15 19.423a4.423 4.423 0 100-8.846 4.423 4.423 0 000 8.846zm-4.598-7.987a1.034 1.034 0 100-2.068 1.034 1.034 0 000 2.068z" fill="#999"/><path d="M15 0c8.283 0 15 6.717 15 15 0 8.283-6.717 15-15 15-8.283 0-15-6.717-15-15C0 6.717 6.717 0 15 0zM6.439 18.551c.041.917.187 1.543.4 2.09a4.404 4.404 0 002.52 2.52c.547.213 1.173.358 2.09.4.918.042 1.212.052 3.55.052 2.34 0 2.633-.01 3.552-.052.917-.042 1.543-.187 2.09-.4a4.22 4.22 0 001.526-.994c.438-.43.777-.95.994-1.525.213-.548.358-1.174.4-2.09.042-.92.052-1.213.052-3.552 0-2.34-.01-2.633-.052-3.551-.041-.917-.187-1.543-.4-2.09a4.22 4.22 0 00-.994-1.526 4.218 4.218 0 00-1.525-.994c-.548-.213-1.174-.358-2.09-.4-.92-.042-1.213-.052-3.552-.052-2.34 0-2.633.01-3.551.052-.917.042-1.543.187-2.09.4a4.222 4.222 0 00-1.527.994 4.22 4.22 0 00-.993 1.525c-.213.548-.359 1.174-.4 2.09-.042.92-.052 1.213-.052 3.552 0 2.34.01 2.633.052 3.551z" fill="#999"/></svg>
